!!!!SEGMENT: pl-cz--iii-114--001-011_dankowski-adalbert--vesperae-d-gloria.krn
!!!cenid: 18xx:816
!!!COM: Dankowski, Adalbert
!!!COM-rismID: pe30000793
!!!CDT: ~1760-~1836
!!!CNT: Polish
!!!OPR: Vesperae D
!!!OTL: Gloria
!!!OMV: 011
!!!PDT:
!!!AGN: Sacred; Vespers
!!!YEC: Copyright 2022 Narodowy Instytut Fryderyka Chopina (https://polishscores.org)
!!!YEM: License CC-BY-4.0 (https://creativecommons.org/licenses/by/4.0)
!!!SMS-siglum: PL-CZ
!!!SMS-shelfmark: III-114
!!!SMS-shelfwork: 001-011 M
!!!SMS-variant:
!!!SMS-altvar:
!!!NIFC-rismSourceID: 300000113
!!!NIFC-rismChildID: 300000113
!!!NIFC-islandoraID: pl-cz:34509
!!!URL-pdf-islandora: https://repozytorium.nifc.pl/islandora/object/pl-cz%3A34509/datastream/PDF/view
!!!URL-scan: https://polish.musicsources.pl/pl/lokalizacje/galeria/rekopisy/6831/1 @EN{Scan on Polish Music Sources Website} @PL{Skany w portalu Dziedzictwo Muzyki Polskiej w otwartym dostępie}
!!!IIIF:
!!!ONB-nifc: UWAGA: części Vesperae: Dixit Dominus, Juravit Dominus, Judicabit, Gloria, Laudate pueri, Laetatus sum, Nisi Dominus, Lauda Jerusalem, Magnificat, Et misericordia, Gloria. Uwaga: brak partii vl 1, fl 1 i 2
!!!AIN: 1 alto 1 bass 2 cor 2 flt 1 organ 1 soprn 1 tenor 2 violn
!!!key: D
**kern	**fba	**kern	**dynam	**kern	**kern	**text	**kern	**text	**kern	**text	**kern	**text	**kern	**kern	**kern	**kern
*	*	*group4	*	*group4	*group3	*	*group3	*	*group3	*	*group3	*	*group2	*group2	*group1	*group1
*part11	*	*part10	*	*part9	*part8	*	*part7	*	*part6	*	*part5	*	*part4	*part3	*part2	*part1
*staff11	*	*staff10	*	*staff9	*staff8	*	*staff7	*	*staff6	*	*staff5	*	*staff4	*staff3	*staff2	*staff1
*I"Organo.	*	*I"Violino Secondo	*	*I"Violino Primo.	*I"Baſso	*	*I"Tenore	*	*I"Alto	*	*I"Canto	*	*I"Cornu Secondo Ex D:	*I"Cornu Primo Ex D:	*I"Flauto Secondo.	*I"Flauto Primo
*I'org	*	*I'vl 2	*	*I'vl 1	*I'B	*	*I'T	*	*I'A	*	*I'S	*	*I'cor 2 in D	*I'cor 1 in D	*I'fl 2	*I'fl 1
*Iorgan	*	*Ivioln	*	*Ivioln	*Ibass	*	*Itenor	*	*Ialto	*	*Isoprn	*	*Icor	*Icor	*Iflt	*Iflt
*ICklav	*	*ICstr	*	*ICstr	*ICvox	*	*ICvox	*	*ICvox	*	*ICvox	*	*ICbras	*ICbras	*ICww	*ICww
*IGcont	*	*	*	*	*IGcoro	*	*IGcoro	*	*IGcoro	*	*IGcoro	*	*	*	*	*
*clefF4	*	*clefG2	*	*	*clefF4	*	*clefC4	*	*clefC3	*	*clefC1	*	*clefG2	*clefG2	*	*
*	*	*	*	*	*	*	*	*	*	*	*	*	*ITrd6c10	*ITrd6c10	*	*
*k[f#c#]	*	*k[f#c#]	*	*	*k[f#c#]	*	*k[f#c#]	*	*k[f#c#]	*	*k[f#c#]	*	*k[f#c#]	*k[f#c#]	*	*
*D:	*	*D:	*	*	*D:	*	*D:	*	*D:	*	*D:	*	*	*	*	*
*M2/2	*	*M4/4	*	*	*M4/4	*	*M4/4	*	*M4/4	*	*M4/4	*	*M4/4	*M4/4	*	*
*met(c|)	*	*met(C.)	*	*	*met(c|)	*	*met(C.)	*	*met(C.)	*	*met(C.)	*	*met(C.)	*met(C.)	*	*
=1	=1	=1	=1	=1	=1	=1	=1	=1	=1	=1	=1	=1	=1	=1	=1	=1
*	*	*	*	*	*	*	*	*	*	*	*	*	*2\right	*2\right	*	*
!LO:TX:a:i:t=tutti	!	!	!	!	!	!	!	!	!	!	!	!	!	!	!	!
!LO:TX:a:i:t=adag.	!	!LO:TX:a:i:t=adag&colon;	!	!	!LO:TX:a:i:t=adag&colon;	!	!LO:TX:a:i:t=adag&colon;	!	!LO:TX:a:i:t=adag&colon;	!	!LO:TX:a:i:t=adag&colon;	!	!LO:TX:a:i:t=adagio&colon;	!LO:TX:a:i:t=adag&colon;	!	!LO:TX:t=P:problem=zgodnie z RISM "vl 1, fl 1, 2 missing"
8D\L	.	8.ff#\L	.	1ryy	4D\	Glo-	4A\	Glo-	4f#\	Glo-	4dd\	Glo-	2d\	2f#\	1ryy	1ryy
8D\	.	.	.	.	.	.	.	.	.	.	.	.	.	.	.	.
.	.	16dd\Jk	.	.	.	.	.	.	.	.	.	.	.	.	.	.
8D\	.	8ff#\L	.	.	8D\	-ri-	8A\	-ri-	8f#\	-ri-	8dd\	-ri-	.	.	.	.
8D\J	.	16ee\L	.	.	8D\	-a	8A\	-a	8f#\	-a	8dd\	-a	.	.	.	.
.	.	16dd\JJ	.	.	.	.	.	.	.	.	.	.	.	.	.	.
8AA/L	.	8.cc#\L	.	.	4A\	pa-	4A\	pa-	4e\	pa-	4cc#\	pa-	4A/	4e\	.	.
8AA/J	.	.	.	.	.	.	.	.	.	.	.	.	.	.	.	.
.	.	32dd\LL	.	.	.	.	.	.	.	.	.	.	.	.	.	.
.	.	32ee\JJJ	.	.	.	.	.	.	.	.	.	.	.	.	.	.
8D\L	.	8dd\L	.	.	8D\	-tri	8A\	-tri	8f#\	-tri	8dd\	-tri	4d\	4f#\	.	.
8F#\J	.	8a\J	.	.	8F#\	&	8A\	&	8f#\	&	8dd\	&	.	.	.	.
=2	=2	=2	=2	=2	=2	=2	=2	=2	=2	=2	=2	=2	=2	=2	=2	=2
!LO:TX:t=P:problem=mixed beam	!	!	!	!	!	!	!	!	!	!	!	!	!	!	!	!
8G\L	6	8b/L	.	1ryy	4G\	fi-	4B\	fi-	4g\	fi-	4ee\	fi-	4e\	4g\	1ryy	1ryy
8G\	.	16b/L	.	.	.	.	.	.	.	.	.	.	.	.	.	.
.	.	16g/JJ	.	.	.	.	.	.	.	.	.	.	.	.	.	.
8A\	4	16g/LL	.	.	4A\	-li-	4A\	-li-	8f#\	.	8dd\	.	8d\L	8f#\L	.	.
.	.	16f#/	.	.	.	.	.	.	.	.	.	.	.	.	.	.
8AA/J	3	16f#/	.	.	.	.	.	.	8e\	-li-	8cc#\	-li-	8A\J	8e\J	.	.
.	.	16e/JJ	.	.	.	.	.	.	.	.	.	.	.	.	.	.
4D\	.	8f#/L	.	.	4D\	-o	4A\	-o	4f#\	-o	4dd\	-o	4F#/	4d\	.	.
.	.	16f#/L	.	.	.	.	.	.	.	.	.	.	.	.	.	.
.	.	16a/JJ	.	.	.	.	.	.	.	.	.	.	.	.	.	.
!	!	!	!	!	!	!	!	!	!LO:TX:a:i:t=Solo	!	!LO:TX:a:i:t=Solo&colon;	!	!	!	!	!
4r	.	4f#/	.	.	4r	.	4r	.	4r	.	4r	.	4r	4r	.	.
=3	=3	=3	=3	=3	=3	=3	=3	=3	=3	=3	=3	=3	=3	=3	=3	=3
!	!	!	!LO:DY:a	!	!	!	!	!	!	!	!	!	!	!	!	!
0r	.	8d/L	p	1ryy	0r	.	0r	.	4a\	Glo-	4ff#\	Glo-	0r	0r	1ryy	1ryy
.	.	8d/	.	.	.	.	.	.	.	.	.	.	.	.	.	.
.	.	8d/	.	.	.	.	.	.	16f#\LL	.	16dd\LL	.	.	.	.	.
.	.	.	.	.	.	.	.	.	16e\	.	16cc#\	.	.	.	.	.
.	.	8d/J	.	.	.	.	.	.	16f#\	.	16dd\	.	.	.	.	.
.	.	.	.	.	.	.	.	.	16g\JJ	.	16ee\JJ	.	.	.	.	.
.	.	8d/L	.	.	.	.	.	.	8.a\L	.	8.ff#\L	.	.	.	.	.
.	.	8d/	.	.	.	.	.	.	.	.	.	.	.	.	.	.
.	.	.	.	.	.	.	.	.	16b\Jk	.	16gg\Jk	.	.	.	.	.
.	.	8a/	.	.	.	.	.	.	8a\	-ri-	8ff#\	-ri-	.	.	.	.
.	.	8A/J	.	.	.	.	.	.	8g\	-a	8ee\	-a	.	.	.	.
!	!	!	!	!	!	!	!	!	!LO:LB:g=original	!	!LO:LB:g=original	!	!	!	!	!
=4	=4	=4	=4	=4	=4	=4	=4	=4	=4	=4	=4	=4	=4	=4	=4	=4
*	*	*tremolo	*	*	*	*	*	*	*	*	*	*	*	*	*	*
.	.	8d/L	.	1ryy	.	.	.	.	4g\	pa-	4ee\	pa-	.	.	1ryy	1ryy
.	.	8d/	.	.	.	.	.	.	.	.	.	.	.	.	.	.
.	.	8d/	.	.	.	.	.	.	8f#\	-tri	8dd\	-tri	.	.	.	.
.	.	8d/J	.	.	.	.	.	.	8a\	&	8ff#\	&	.	.	.	.
*	*	*Xtremolo	*	*	*	*	*	*	*	*	*	*	*	*	*	*
.	.	8d/L	.	.	.	.	.	.	16a\LL	fi-	16ff#\LL	fi-	.	.	.	.
.	.	.	.	.	.	.	.	.	16f#\	.	16dd\	.	.	.	.	.
.	.	8d/	.	.	.	.	.	.	16b\	.	16gg\	.	.	.	.	.
.	.	.	.	.	.	.	.	.	16a\JJ	.	16ff#\JJ	.	.	.	.	.
.	.	8G/	.	.	.	.	.	.	16a\LL	.	16ff#\LL	.	.	.	.	.
.	.	.	.	.	.	.	.	.	16g\JJ	.	16ee\JJ	.	.	.	.	.
.	.	8G#X/J	.	.	.	.	.	.	16g\LL	-li-	16ee\LL	-li-	.	.	.	.
.	.	.	.	.	.	.	.	.	16f#\JJ	.	16dd\JJ	.	.	.	.	.
!	!	!LO:LB:g=original	!	!	!	!	!	!	!	!	!	!	!	!	!	!
=5	=5	=5	=5	=5	=5	=5	=5	=5	=5	=5	=5	=5	=5	=5	=5	=5
!	!	!LO:TX:t=P:problem=mixed beam	!LO:DY:a	!	!	!	!	!	!	!	!	!	!	!	!	!
8r	.	16A/LL	f	1ryy	8r	.	8r	.	4e\	-o	8cc#\	-o	8r	8r	1ryy	1ryy
.	.	32cc#\L	.	.	.	.	.	.	.	.	.	.	.	.	.	.
.	.	32dd\JJJ	.	.	.	.	.	.	.	.	.	.	.	.	.	.
!LO:TX:t=P:problem=mixed beam	!	!	!	!	!	!	!	!	!	!	!	!	!	!	!	!
8AA\L	3_	16cc#\LL	.	.	4A\	&	4A\	&	.	.	8cc#\	&	8A/L	8e\L	.	.
.	.	16cc#\JJ	.	.	.	.	.	.	.	.	.	.	.	.	.	.
8A\	.	16cc#\LL	.	.	.	.	.	.	8e\	&	8cc#\	ſpi-	8A/	8e\	.	.
.	.	16a\	.	.	.	.	.	.	.	.	.	.	.	.	.	.
8G/J	x	16ee\	.	.	8G\	ſpi-	8A\	ſpi-	8e\	ſpi-	8cc#\	-ri-	8A/J	8e\J	.	.
.	.	16cc#\JJ	.	.	.	.	.	.	.	.	.	.	.	.	.	.
8F#\L	6	16dd\LL	.	.	4F#\	-ri-	4A\	-ri-	4f#\	-ri-	4dd\	-tu-	4d\	4f#\	.	.
.	.	16a\	.	.	.	.	.	.	.	.	.	.	.	.	.	.
8F#\	.	16ff#\	.	.	.	.	.	.	.	.	.	.	.	.	.	.
.	.	16dd\JJ	.	.	.	.	.	.	.	.	.	.	.	.	.	.
!	!	!	!	!	!LO:LB:g=original	!	!LO:LB:g=original	!	!	!	!	!	!	!	!	!
8C#\	6 5	16ee\LL	.	.	8C#/	-tu-	8A\	-tu-	8a\	-tu-	4ee\	-i	4A/	4e\	.	.
.	.	16ff#\	.	.	.	.	.	.	.	.	.	.	.	.	.	.
8C#\J	.	16gg\	.	.	8C#/	-i	8A\	-i	8a\	-i	.	.	.	.	.	.
.	.	16ee\JJ	.	.	.	.	.	.	.	.	.	.	.	.	.	.
=6	=6	=6	=6	=6	=6	=6	=6	=6	=6	=6	=6	=6	=6	=6	=6	=6
8D/L	.	8ff#\L	.	1ryy	8D/L	ſan-	8d\L	ſan-	4.a\	ſan-	8ff#\L	ſan-	8d\L	8f#\L	1ryy	1ryy
8C#/J	6	8ee\	.	.	8C#/J	.	8e\	.	.	.	8ee\J	.	8e\	8a\	.	.
4BB/	7	8dd\	.	.	4BB/	.	8f#\	.	.	.	4dd\	.	8f#\	8a\	.	.
.	6\	8dd\J	.	.	.	.	8e\J	.	8g#X\	.	.	.	8e\J	8g#X\J	.	.
4AA/	.	4cc#\	.	.	4AA/	-cto	4e\	-cto	4a\	-cto	4cc#\	-cto	4A/	4a\	.	.
!LO:TX:b:i:t=Verte	!	!LO:TX:b:i:t=Verte	!	!	!	!	!	!	!	!	!	!	!	!	!	!
4r	.	4r	.	.	4r	.	4r	.	4r	.	4r	.	4r	4r	.	.
!LO:PB:g=original	!	!LO:PB:g=original	!	!	!LO:LB:g=original	!	!LO:LB:g=original	!	!LO:LB:g=original	!	!LO:LB:g=original	!	!LO:LB:g=original	!LO:LB:g=original	!	!
=7||	=7||	=7||	=7||	=7||	=7||	=7||	=7||	=7||	=7||	=7||	=7||	=7||	=7||	=7||	=7||	=7||
*M2/2	*	*M2/2	*	*	*M2/2	*	*M2/2	*	*M2/2	*	*M2/2	*	*M2/2	*M2/2	*	*
*^	*	*	*	*	*	*	*	*	*	*	*	*	*	*	*	*
*clefC1	*	*	*	*	*	*	*	*	*	*	*	*2\right	*	*	*	*	*
!LO:TX:a:i:t=Capella	!	!	!LO:TX:a:i:t=Capella&colon;	!	!	!	!	!	!	!	!	!	!	!	!	!	!
!LO:TX:t=P:problem=oznaczenie metryczne 2 lub Z	!LO:TX:t=P:problem=oznaczenie metryczne 2 lub Z	!	!LO:TX:t=P:problem=oznaczenie metryczne 2 lub Z	!	!	!LO:TX:t=P:problem=oznaczenie metryczne 2 lub Z	!	!LO:TX:t=P:problem=oznaczenie metryczne 2 lub Z	!	!LO:TX:t=P:problem=oznaczenie metryczne 2 lub Z	!	!LO:TX:t=P:problem=oznaczenie metryczne 2 lub Z	!	!LO:TX:t=P:problem=oznaczenie metryczne 2 lub Z	!LO:TX:t=P:problem=oznaczenie metryczne 2 lub Z	!	!
2.dd/	4r	.	4r	.	1ryy	00r	.	00r	.	4r	.	2.dd\	ſi-	00r	00r	1ryy	1ryy
.	4d\	.	4d/	.	.	.	.	.	.	(4d\	ſi-	.	.	.	.	.	.
.	4e\	.	4e/	.	.	.	.	.	.	4e\)	.	.	.	.	.	.	.
4dd/	4f#\	.	4f#/	.	.	.	.	.	.	4f#\	-cut	4dd\	-cut	.	.	.	.
=8	=8	=8	=8	=8	=8	=8	=8	=8	=8	=8	=8	=8	=8	=8	=8	=8	=8
*2\right	*	*	*	*	*	*	*	*	*	*2\right	*	*	*	*	*	*	*
4cc#/	2.g\	.	2.g/	.	1ryy	.	.	.	.	2.g\	e-	4cc#\	e-	.	.	1ryy	1ryy
8b/L	.	.	.	.	.	.	.	.	.	.	.	8b\L	-rat	.	.	.	.
8cc#/J	.	.	.	.	.	.	.	.	.	.	.	8cc#\J	.	.	.	.	.
4a/	.	.	.	.	.	.	.	.	.	.	.	4a\	in	.	.	.	.
4cc#/	4e\	.	4e/	.	.	.	.	.	.	4e\	-rat	4cc#\	prin-	.	.	.	.
=9	=9	=9	=9	=9	=9	=9	=9	=9	=9	=9	=9	=9	=9	=9	=9	=9	=9
2.dd/	4f#\	.	4f#/	.	1ryy	.	.	.	.	4f#\	in	2.dd\	-ci-	.	.	1ryy	1ryy
.	4a\	.	4a/	.	.	.	.	.	.	4a\	prin-	.	.	.	.	.	.
.	4d\	.	4d/	.	.	.	.	.	.	4d\	-ci-	.	.	.	.	.	.
4dd/	4f#\	.	4f#/	.	.	.	.	.	.	4f#\	-pi-	4dd\	-pi-	.	.	.	.
=10	=10	=10	=10	=10	=10	=10	=10	=10	=10	=10	=10	=10	=10	=10	=10	=10	=10
4cc#/	2.g\	.	2.g/	.	1ryy	.	.	.	.	2.g\	-o	4cc#\	-o	.	.	1ryy	1ryy
8b/L	.	.	.	.	.	.	.	.	.	.	.	8b\L	&	.	.	.	.
8cc#/J	.	.	.	.	.	.	.	.	.	.	.	8cc#\J	.	.	.	.	.
4a/	.	.	.	.	.	.	.	.	.	.	.	4a\	nunc	.	.	.	.
4cc#/	4e\	.	4e/	.	.	.	.	.	.	4e\	&	4cc#\	&	.	.	.	.
=11	=11	=11	=11	=11	=11	=11	=11	=11	=11	=11	=11	=11	=11	=11	=11	=11	=11
2dd/	4f#\	.	4f#/	.	1ryy	00r	.	0r	.	4f#\	nunc	2dd\	ſem-	00r	00r	1ryy	1ryy
.	4d\	.	4d/	.	.	.	.	.	.	4d\	&	.	.	.	.	.	.
2cc#/	2a\	.	[2a/	.	.	.	.	.	.	[<2a\	ſem-	2cc#\	.	.	.	.	.
=12	=12	=12	=12	=12	=12	=12	=12	=12	=12	=12	=12	=12	=12	=12	=12	=12	=12
1b	2a\	.	2a/]	.	1ryy	.	.	.	.	2a\]	.	1b	.	.	.	1ryy	1ryy
.	2g#X\	.	2g#X/	.	.	.	.	.	.	2g#X\	.	.	.	.	.	.	.
=13	=13	=13	=13	=13	=13	=13	=13	=13	=13	=13	=13	=13	=13	=13	=13	=13	=13
4cc#/	4a\	.	2.a/	.	1ryy	.	.	4r	.	2a\	-per	4cc#\	-per	.	.	1ryy	1ryy
*clefC4	*	*	*	*	*	*	*	*	*	*	*	*	*	*	*	*	*
!	!	!	!	!	!	!	!	!	!	!	!	!LO:LB:g=original	!	!	!	!	!
4A\	4ryy	.	.	.	.	.	.	(4A\	ſi-	.	.	(4cc#\	&	.	.	.	.
!LO:LB:g=original	!	!	!	!	!	!	!	!	!	!LO:TX:t=P:problem=oznaczenie metryczne 2 lub Z	!	!	!	!	!	!	!
4B\	2ryy	.	.	.	.	.	.	4B\)	.	4a\	&	4dd\)	.	.	.	.	.
4c#\	.	6	4a/	.	.	.	.	4c#\	-cut	4a\	in	4ee\	in	.	.	.	.
*v	*v	*	*	*	*	*	*	*	*	*	*	*	*	*	*	*	*
=14	=14	=14	=14	=14	=14	=14	=14	=14	=14	=14	=14	=14	=14	=14	=14	=14
*	*	*	*	*	*	*	*2\right	*	*	*	*	*	*	*	*	*
2.d\	#4r 2	4g#X/	.	1ryy	.	.	2.d\	e-	4g#X\	ſae-	2.ee\	ſae-	.	.	1ryy	1ryy
.	.	8f#/L	.	.	.	.	.	.	8f#\L	.	.	.	.	.	.	.
.	.	8g#/J	.	.	.	.	.	.	8g#\J	.	.	.	.	.	.	.
.	.	4e/	.	.	.	.	.	.	4e\	-cu-	.	.	.	.	.	.
4B\	5	4g#/	.	.	.	.	4B\	-rat	4g#\	-la	4ee\	-cu-	.	.	.	.
!	!	!LO:LB:g=original	!	!	!	!	!	!	!	!	!	!	!	!	!	!
=15	=15	=15	=15	=15	=15	=15	=15	=15	=15	=15	=15	=15	=15	=15	=15	=15
4c#\	6_	2.a/	.	1ryy	00r	.	4c#\	in	2.a\	ſae-	4ee\	-la	00r	00r	1ryy	1ryy
4e\	.	.	.	.	.	.	4e\	prin-	.	.	(4a\	ſae-	.	.	.	.
4A\	x	.	.	.	.	.	4A\	-ci-	.	.	4cc#\)	.	.	.	.	.
4c#\	.	4a/	.	.	.	.	4c#\	-pi-	4a\	-cu-	4ee\	-cu-	.	.	.	.
=16	=16	=16	=16	=16	=16	=16	=16	=16	=16	=16	=16	=16	=16	=16	=16	=16
2.d\	#4r_ 2_	4g#X/	.	1ryy	.	.	2.d\	-o	4g#X\	-lo-	1ee	-lo-	.	.	1ryy	1ryy
.	.	8f#/L	.	.	.	.	.	.	8f#\L	.	.	.	.	.	.	.
.	.	8g#/J	.	.	.	.	.	.	8g#\J	.	.	.	.	.	.	.
.	.	4e/	.	.	.	.	.	.	4e\	.	.	.	.	.	.	.
4B\	.	4g#/	.	.	.	.	4B\	&	4g#\	-rum	.	.	.	.	.	.
=17	=17	=17	=17	=17	=17	=17	=17	=17	=17	=17	=17	=17	=17	=17	=17	=17
4c#\	6	4a/	.	1ryy	.	.	4c#\	nunc	4a\	a-	2ee\	-rum	.	.	1ryy	1ryy
4A\	.	4gn/	.	.	.	.	4A\	&	4gn\	.	.	.	.	.	.	.
[<2d\	.	2f#/	.	.	.	.	[<2d\	ſem-	2f#\	.	4ff#\	a-	.	.	.	.
.	.	.	.	.	.	.	.	.	.	.	4dd\	.	.	.	.	.
!	!	!	!	!	!	!	!LO:LB:g=original	!	!	!	!	!	!	!	!	!
=18	=18	=18	=18	=18	=18	=18	=18	=18	=18	=18	=18	=18	=18	=18	=18	=18
!	!	!	!	!	!	!	!LO:TX:t=P:problem=brak zakończenia ligatury	!	!	!	!	!	!	!	!	!
2d\]	4 2	1e	.	1ryy	.	.	2d\]	.	1e	.	4gg\	.	.	.	1ryy	1ryy
.	.	.	.	.	.	.	.	.	.	.	4ee\	.	.	.	.	.
2c#\	6 5	.	.	.	.	.	2c#\	.	.	.	4aa\	.	.	.	.	.
.	.	.	.	.	.	.	.	.	.	.	4gg\	.	.	.	.	.
=19	=19	=19	=19	=19	=19	=19	=19	=19	=19	=19	=19	=19	=19	=19	=19	=19
4d\	.	4d/	.	1ryy	4r	.	2d\	-per	4d\	-men	2ff#\	.	2r	2r	1ryy	1ryy
*clefF4	*	*	*	*	*	*	*	*	*	*	*	*	*	*	*	*
4D\	.	4f#/	.	.	(4D\	ſi-	.	.	4f#\	a-	.	.	.	.	.	.
4E\	.	4g/	.	.	4E\)	.	4d\	&	4g\	.	4ee\	.	2d\	2f#\	.	.
4F#\	6	4a/	.	.	4F#\	-cut	4d\	in	4a\	.	4dd\	.	.	.	.	.
!	!	!	!	!	!	!	!	!	!LO:LB:g=original	!	!LO:LB:g=original	!	!	!	!	!
=20	=20	=20	=20	=20	=20	=20	=20	=20	=20	=20	=20	=20	=20	=20	=20	=20
*	*	*	*	*	*2\right	*	*	*	*	*	*	*	*	*	*	*
2.G\	4_ 2_	[1a	.	1ryy	2.G\	e-	(4c#\	ſae-	1a	.	4gg\	.	2A/	2e\	1ryy	1ryy
.	.	.	.	.	.	.	4e\)	.	.	.	4ee\	.	.	.	.	.
.	.	.	.	.	.	.	4A\	-cu-	.	.	4aa\	.	2A/	2e\	.	.
4E\	.	.	.	.	4E\	-rat	4c#\	-la	.	.	4gg\	.	.	.	.	.
=21	=21	=21	=21	=21	=21	=21	=21	=21	=21	=21	=21	=21	=21	=21	=21	=21
4F#\	6_	4a/]	.	1ryy	4F#\	in	2.d\	ſae-	4a\	-men	2ff#\	.	2d\	2f#\	1ryy	1ryy
4A\	.	4d/	.	.	4A\	prin-	.	.	4d\	a-	.	.	.	.	.	.
4D\	.	4f#/	.	.	4D\	-ci-	.	.	4f#\	.	4ee\	.	2d\	2f#\	.	.
4F#\	.	4a/	.	.	4F#\	-pi-	4d\	-cu-	4a\	.	4dd\	.	.	.	.	.
!LO:LB:g=original	!	!	!	!	!	!	!	!	!	!	!	!	!	!	!	!
=22	=22	=22	=22	=22	=22	=22	=22	=22	=22	=22	=22	=22	=22	=22	=22	=22
2.G\	4_ 2_	1a	.	1ryy	2.G\	-o	4c#\	-lo-	1a	.	4gg\	.	2A/	2e\	1ryy	1ryy
.	.	.	.	.	.	.	4e\	.	.	.	4ee\	.	.	.	.	.
.	.	.	.	.	.	.	4A\	.	.	.	4aa\	.	2A/	2e\	.	.
4E\	x	.	.	.	4E\	&	4c#\	.	.	.	4gg\	.	.	.	.	.
=23	=23	=23	=23	=23	=23	=23	=23	=23	=23	=23	=23	=23	=23	=23	=23	=23
4F#\	6	2a/	.	1ryy	4F#\	nunc	2d\	-rum	2a\	-men	4ff#\	.	4d\	4f#\	1ryy	1ryy
4D\	.	.	.	.	4D\	&	.	.	.	.	4dd\	.	4r	4r	.	.
*	*	*2\right	*	*	*	*	*	*	*	*	*	*	*	*	*	*
[<2A\	.	2cc#\	.	.	2A\	ſem-	2e\	a-	2a\	a-	2cc#\	.	2r	2r	.	.
=24	=24	=24	=24	=24	=24	=24	=24	=24	=24	=24	=24	=24	=24	=24	=24	=24
2A\]	4 2	1b	.	1ryy	2A\	.	2f#\	.	1b	.	4dd\	.	00r	00r	1ryy	1ryy
.	.	.	.	.	.	.	.	.	.	.	4b\	.	.	.	.	.
2G#X\	6 5	.	.	.	2G#X\	.	2e\	.	.	.	4ee\	.	.	.	.	.
.	.	.	.	.	.	.	.	.	.	.	4dd\	.	.	.	.	.
!	!	!LO:LB:g=original	!	!	!LO:LB:g=original	!	!LO:LB:g=original	!	!	!	!	!	!	!	!	!
=25	=25	=25	=25	=25	=25	=25	=25	=25	=25	=25	=25	=25	=25	=25	=25	=25
2A\	.	2a/	.	1ryy	2A\	-per	2e\	.	2a\	-men	2cc#\	-men	.	.	1ryy	1ryy
4B\	3_	[<2dd\	.	.	4B\	&	2d\	.	[<2dd\	a-	2ff#\	a-	.	.	.	.
4A\	.	.	.	.	4A\	in	.	.	.	.	.	.	.	.	.	.
=26	=26	=26	=26	=26	=26	=26	=26	=26	=26	=26	=26	=26	=26	=26	=26	=26
4Gn\	6 5	2dd\]	.	1ryy	(4Gn\	ſae-	2B\	.	2dd\]	.	1ee	.	.	.	1ryy	1ryy
4E\	.	.	.	.	4E\)	.	.	.	.	.	.	.	.	.	.	.
4A\	3	[<2cc#\	.	.	4A\	-cu-	[<2A\	.	[<2cc#\	.	.	.	.	.	.	.
4G\	.	.	.	.	4G\	-la	.	.	.	.	.	.	.	.	.	.
=27	=27	=27	=27	=27	=27	=27	=27	=27	=27	=27	=27	=27	=27	=27	=27	=27
4F#\	6 5	2cc#\]	.	1ryy	(4F#\	ſae-	2A\]	.	2cc#\]	.	1dd	.	.	.	1ryy	1ryy
4D\	.	.	.	.	4D\)	.	.	.	.	.	.	.	.	.	.	.
4G\	3_	[2b/	.	.	(4G\	-cu-	[<2G/	.	[<2b\	.	.	.	.	.	.	.
4F#\	.	.	.	.	4F#\)	.	.	.	.	.	.	.	.	.	.	.
!	!	!	!	!	!	!	!	!	!	!	!LO:LB:g=original	!	!	!	!	!
=28	=28	=28	=28	=28	=28	=28	=28	=28	=28	=28	=28	=28	=28	=28	=28	=28
4E\	6 5	2b/]	.	1ryy	(4E\	-lo-	2G/]	.	2b\]	.	1cc#	.	2r	2r	1ryy	1ryy
4C#\	.	.	.	.	4C#\)	.	.	.	.	.	.	.	.	.	.	.
4F#\	#	2a#X/	.	.	(4F#\	-rum	2F#/	.	2a#X\	.	.	.	4r	4r	.	.
4E\	.	.	.	.	4E\)	.	.	.	.	.	.	.	4F#/	4f#\	.	.
!	!	!	!	!	!	!	!	!	!LO:LB:g=original	!	!	!	!	!	!	!
=29	=29	=29	=29	=29	=29	=29	=29	=29	=29	=29	=29	=29	=29	=29	=29	=29
4D\	6	2.b/	.	1ryy	4D\	a-	4F#/	.	2.b\	.	2dd\	.	4d\	4f#\	1ryy	1ryy
4G\	.	.	.	.	4G\	.	2G/	.	.	.	.	.	4d\	4g\	.	.
4E\	6 5	.	.	.	4E\	.	.	.	.	.	2cc#\	.	4e\	4g\	.	.
4F#\	#	4a#X/	.	.	4F#\	.	4F#/	.	4a#X\	.	.	.	4f#\	4f#\	.	.
!LO:LB:g=original	!	!	!	!	!	!	!	!	!	!	!	!	!	!LO:LB:g=original	!	!
=30	=30	=30	=30	=30	=30	=30	=30	=30	=30	=30	=30	=30	=30	=30	=30	=30
2BB/	.	4b/	.	1ryy	2BB/	-men	2F#/	-men	2b\	-men	2dd\	-men	2F#/	2f#\	1ryy	1ryy
!	!	!LO:TX:a:i:t=Solo&colon;	!	!	!	!	!	!	!	!	!	!	!	!	!	!
.	.	4B/	.	.	.	.	.	.	.	.	.	.	.	.	.	.
2r	.	4c#/	.	.	2r	.	2r	.	2r	.	2r	.	2r	2r	.	.
.	.	4d/	.	.	.	.	.	.	.	.	.	.	.	.	.	.
!	!	!	!	!	!	!	!	!	!	!	!	!	!LO:LB:g=original	!	!	!
=31	=31	=31	=31	=31	=31	=31	=31	=31	=31	=31	=31	=31	=31	=31	=31	=31
!	!	!	!	!	!	!	!	!	!	!	!LO:TX:b:t=8:color=grey	!	!	!	!	!
00r	.	2.e/	.	1ryy	00r	.	00r	.	00r	.	00r	.	00r	00r	1ryy	1ryy
.	.	4c#/	.	.	.	.	.	.	.	.	.	.	.	.	.	.
=32	=32	=32	=32	=32	=32	=32	=32	=32	=32	=32	=32	=32	=32	=32	=32	=32
.	.	4d/	.	1ryy	.	.	.	.	.	.	.	.	.	.	1ryy	1ryy
.	.	4f#/	.	.	.	.	.	.	.	.	.	.	.	.	.	.
.	.	4B/	.	.	.	.	.	.	.	.	.	.	.	.	.	.
.	.	4d/	.	.	.	.	.	.	.	.	.	.	.	.	.	.
=33	=33	=33	=33	=33	=33	=33	=33	=33	=33	=33	=33	=33	=33	=33	=33	=33
.	.	2.e/	.	1ryy	.	.	.	.	.	.	.	.	.	.	1ryy	1ryy
.	.	4c#/	.	.	.	.	.	.	.	.	.	.	.	.	.	.
!	!	!LO:LB:g=original	!	!	!	!	!	!	!	!	!	!	!	!	!	!
=34	=34	=34	=34	=34	=34	=34	=34	=34	=34	=34	=34	=34	=34	=34	=34	=34
.	.	4d/	.	1ryy	.	.	.	.	.	.	.	.	.	.	1ryy	1ryy
.	.	4b\	.	.	.	.	.	.	.	.	.	.	.	.	.	.
.	.	4cc#\	.	.	.	.	.	.	.	.	.	.	.	.	.	.
.	.	4b\	.	.	.	.	.	.	.	.	.	.	.	.	.	.
=35	=35	=35	=35	=35	=35	=35	=35	=35	=35	=35	=35	=35	=35	=35	=35	=35
00r	.	4an/	.	1ryy	00r	.	00r	.	00r	.	00r	.	00r	00r	1ryy	1ryy
.	.	4f#/	.	.	.	.	.	.	.	.	.	.	.	.	.	.
.	.	4b/	.	.	.	.	.	.	.	.	.	.	.	.	.	.
.	.	4a/	.	.	.	.	.	.	.	.	.	.	.	.	.	.
=36	=36	=36	=36	=36	=36	=36	=36	=36	=36	=36	=36	=36	=36	=36	=36	=36
.	.	2g#X/	.	1ryy	.	.	.	.	.	.	.	.	.	.	1ryy	1ryy
.	.	2a/	.	.	.	.	.	.	.	.	.	.	.	.	.	.
=37	=37	=37	=37	=37	=37	=37	=37	=37	=37	=37	=37	=37	=37	=37	=37	=37
.	.	4r	.	1ryy	.	.	.	.	.	.	.	.	.	.	1ryy	1ryy
.	.	4gn/	.	.	.	.	.	.	.	.	.	.	.	.	.	.
.	.	4f#/	.	.	.	.	.	.	.	.	.	.	.	.	.	.
.	.	4d/	.	.	.	.	.	.	.	.	.	.	.	.	.	.
=38	=38	=38	=38	=38	=38	=38	=38	=38	=38	=38	=38	=38	=38	=38	=38	=38
.	.	4g/	.	1ryy	.	.	.	.	.	.	.	.	.	.	1ryy	1ryy
.	.	4e/	.	.	.	.	.	.	.	.	.	.	.	.	.	.
.	.	4a/	.	.	.	.	.	.	.	.	.	.	.	.	.	.
.	.	4g/	.	.	.	.	.	.	.	.	.	.	.	.	.	.
!	!	!	!	!	!LO:LB:g=original	!	!	!	!	!	!	!	!	!	!	!
=39	=39	=39	=39	=39	=39	=39	=39	=39	=39	=39	=39	=39	=39	=39	=39	=39
2.D\	.	4f#/	.	1ryy	2.D\	ſi-	2.A\	ſi-	4r	.	2ff#\	a-	2d\	2f#\	1ryy	1ryy
!	!	!	!LO:DY:a	!	!	!	!	!	!	!	!	!	!	!	!	!
.	.	4d/	f	.	.	.	.	.	(4d\	ſi-	.	.	.	.	.	.
.	.	4e/	.	.	.	.	.	.	4e\)	.	4ee\	.	2d\	2f#\	.	.
4D\	.	4f#/	.	.	4D\	-cut	4A\	-cut	4f#\	-cut	4dd\	.	.	.	.	.
!	!	!	!	!	!	!	!LO:LB:g=original	!	!	!	!	!	!	!	!	!
=40	=40	=40	=40	=40	=40	=40	=40	=40	=40	=40	=40	=40	=40	=40	=40	=40
4C#/	6_ 5_	2.g/	.	1ryy	4C#/	e-	2A\	e-	2.g\	e-	4gg\	.	2A/	2e\	1ryy	1ryy
4E\	.	.	.	.	4E\	-rat	.	.	.	.	4ee\	.	.	.	.	.
4AA/	.	.	.	.	4AA/	in	2A\	-rat	.	.	4aa\	.	2A/	2e\	.	.
4C#/	.	4e/	.	.	4C#/	prin-	.	.	4e\	-rat	4gg\	.	.	.	.	.
=41	=41	=41	=41	=41	=41	=41	=41	=41	=41	=41	=41	=41	=41	=41	=41	=41
2.D\	x	4f#/	.	1ryy	2.D\	-ci-	4A\	in	4f#\	in	2.ff#\	-men	2d\	2f#\	1ryy	1ryy
.	.	4a/	.	.	.	.	4D/	prin-	4a\	prin-	.	.	.	.	.	.
.	.	4d/	.	.	.	.	4F#/	-ci-	4d\	-ci-	.	.	2d\	2f#\	.	.
4D\	.	4f#/	.	.	4D\	-pi-	4A\	-pi-	4f#\	-pi-	4dd\	a-	.	.	.	.
!	!	!LO:LB:g=original	!	!	!	!	!	!	!	!	!	!	!	!	!	!
=42	=42	=42	=42	=42	=42	=42	=42	=42	=42	=42	=42	=42	=42	=42	=42	=42
4C#/	6_ 5_	2.g/	.	1ryy	4C#/	-o	2A\	-o	2.g\	-o	4gg\	.	2A/	2e\	1ryy	1ryy
4E\	.	.	.	.	4E\	&	.	.	.	.	4ee\	.	.	.	.	.
4AA/	.	.	.	.	4AA/	nunc	2A\	&	.	.	4aa\	.	2A/	2e\	.	.
4C#/	.	4e/	.	.	4C#/	&	.	.	4e\	&	4gg\	.	.	.	.	.
!	!	!	!	!	!	!	!	!	!	!	!LO:LB:g=original	!	!	!	!	!
=43	=43	=43	=43	=43	=43	=43	=43	=43	=43	=43	=43	=43	=43	=43	=43	=43
2D/	x	4f#/	.	1ryy	2D/	ſem-	2A\	nunc	4f#\	nunc	2ff#\	.	2d\	2f#\	1ryy	1ryy
.	.	4d/	.	.	.	.	.	.	4d\	&	.	.	.	.	.	.
2C#/	6	[2a/	.	.	2C#/	.	2e\	&	[<2a\	ſem-	2ee\	.	2e\	2a\	.	.
!	!	!	!	!	!	!	!	!	!LO:LB:g=original	!	!	!	!	!	!	!
=44	=44	=44	=44	=44	=44	=44	=44	=44	=44	=44	=44	=44	=44	=44	=44	=44
!	!	!	!	!	!	!	!	!	!LO:TX:t=P:problem=brak zakończenia ligatury	!	!	!	!	!	!	!
1BB	7	2a/]	.	1ryy	1BB	.	2f#\	ſem-	2a\]	.	1dd	.	2f#\	2a\	1ryy	1ryy
.	6\	2g#X/	.	.	.	.	2e\	.	2g#X\	.	.	.	2e\	2g#X\	.	.
=45	=45	=45	=45	=45	=45	=45	=45	=45	=45	=45	=45	=45	=45	=45	=45	=45
2AA/	.	2a/	.	1ryy	2AA/	-per	2e\	-per	2a\	-per	2.cc#\	.	1A	2a\	1ryy	1ryy
4A\	3_	2e/	.	.	4A\	&	4A\	&	4e\	&	.	.	.	2e\	.	.
4G\	.	.	.	.	4G\	in	4A\	in	4e\	in	8b\L	.	.	.	.	.
.	.	.	.	.	.	.	.	.	.	.	8cc#\J	.	.	.	.	.
!	!	!	!	!	!LO:LB:g=original	!	!	!	!	!	!	!	!	!	!	!
=46	=46	=46	=46	=46	=46	=46	=46	=46	=46	=46	=46	=46	=46	=46	=46	=46
4F#\	6_	1f#	.	1ryy	(4F#\	ſae-	2A\	ſae-	2f#\	ſae-	1dd	.	1d	1f#	1ryy	1ryy
4D\	.	.	.	.	4D\)	.	.	.	.	.	.	.	.	.	.	.
4E\	.	.	.	.	4E\	-cu-	4A\	-cu-	4f#\	-cu-	.	.	.	.	.	.
4F#\	.	.	.	.	4F#\	-la	4A\	-la	4f#\	-la	.	.	.	.	.	.
!LO:LB:g=original	!	!	!	!	!	!	!LO:LB:g=original	!	!	!	!	!	!	!LO:LB:g=original	!	!
=47	=47	=47	=47	=47	=47	=47	=47	=47	=47	=47	=47	=47	=47	=47	=47	=47
4G\	6 5	1e	.	1ryy	(4G\	ſae-	2B\	ſae-	2e\	ſae-	2dd\	.	2d\	1e	1ryy	1ryy
4E\	.	.	.	.	4E\)	.	.	.	.	.	.	.	.	.	.	.
4A\	3_	.	.	.	(4A\	-cu-	2A\	-cu-	2e\	-cu-	2cc#\	.	2A/	.	.	.
4G\	.	.	.	.	4G\)	.	.	.	.	.	.	.	.	.	.	.
=48	=48	=48	=48	=48	=48	=48	=48	=48	=48	=48	=48	=48	=48	=48	=48	=48
4F#\	6	2f#/	.	1ryy	4F#\	-lo-	2A\	-lo-	2f#\	-lo-	2dd\	-men	4F#/	4d\	1ryy	1ryy
4D\	.	.	.	.	4D\	-rum	.	.	.	.	.	.	4r	4r	.	.
[<2A\	.	2a/	.	.	[<2A\	a-	2e\	-rum	2a\	-rum	2cc#\	a-	2r	2r	.	.
!	!	!	!	!	!	!	!	!	!	!	!	!	!LO:LB:g=original	!	!	!
=49	=49	=49	=49	=49	=49	=49	=49	=49	=49	=49	=49	=49	=49	=49	=49	=49
2A\]	4 2	1b	.	1ryy	2A\]	.	2f#\	a-	1b	a-	4dd\	.	1r	1r	1ryy	1ryy
.	.	.	.	.	.	.	.	.	.	.	4b\	.	.	.	.	.
[<2G\	6 5	.	.	.	[<2G\	.	2e\	.	.	.	4ee\	.	.	.	.	.
.	.	.	.	.	.	.	.	.	.	.	4dd\	.	.	.	.	.
=50	=50	=50	=50	=50	=50	=50	=50	=50	=50	=50	=50	=50	=50	=50	=50	=50
4G\]	4_ 2_	1a	.	1ryy	4G\]	.	2e\	.	1a	.	2cc#\	.	2r	2r	1ryy	1ryy
8F#\L	.	.	.	.	8F#\L	.	.	.	.	.	.	.	.	.	.	.
8E\J	.	.	.	.	8E\J	.	.	.	.	.	.	.	.	.	.	.
4F#\	6	.	.	.	4F#\	.	2d\	.	.	.	2dd\	.	4r	4r	.	.
4D\	.	.	.	.	4D\	.	.	.	.	.	.	.	4d\	4f#\	.	.
=51	=51	=51	=51	=51	=51	=51	=51	=51	=51	=51	=51	=51	=51	=51	=51	=51
4C#/	6 5	1a	.	1ryy	4C#/	.	2c#\	.	1a	.	2ee\	.	2e\	2g\	1ryy	1ryy
4AA/	.	.	.	.	4AA/	.	.	.	.	.	.	.	.	.	.	.
[2D/	.	.	.	.	[2D/	.	2d\	.	.	.	2ff#\	.	2d\	2f#\	.	.
!	!	!	!	!	!	!	!	!	!	!	!LO:LB:g=original	!	!	!	!	!
=52	=52	=52	=52	=52	=52	=52	=52	=52	=52	=52	=52	=52	=52	=52	=52	=52
2D/]	4 2	2b/	.	1ryy	2D/]	.	1G	.	2b\	.	1ee	.	2d\	1e	1ryy	1ryy
2C#/	6 5	2a/	.	.	2C#/	.	.	.	2a\	.	.	.	2A/	.	.	.
!	!	!	!	!	!LO:LB:g=original	!	!	!	!LO:LB:g=original	!	!	!	!	!	!	!
=53	=53	=53	=53	=53	=53	=53	=53	=53	=53	=53	=53	=53	=53	=53	=53	=53
4D\	.	4a/	.	1ryy	4D\	-men	4F#/	-men	4a\	-men	2.ff#\	-men	2d\	2f#\	1ryy	1ryy
4D\	.	4f#/	.	.	4D\	a-	4D/	a-	4f#\	a-	.	.	.	.	.	.
4E\	.	4g/	.	.	4E\	.	4F#/	.	4g\	.	.	.	2d\	2f#\	.	.
4F#\	6	4a/	.	.	4F#\	.	4A\	.	4a\	.	8ee\L	a-	.	.	.	.
.	.	.	.	.	.	.	.	.	.	.	8ff#\J	.	.	.	.	.
!	!	!LO:LB:g=original	!	!	!	!	!	!	!	!	!	!	!	!	!	!
=54	=54	=54	=54	=54	=54	=54	=54	=54	=54	=54	=54	=54	=54	=54	=54	=54
2.G\	4_ 2_	2.a/	.	1ryy	2.G\	.	1A	.	1a	.	4gg\	.	2A/	2e\	1ryy	1ryy
.	.	.	.	.	.	.	.	.	.	.	4ee\	.	.	.	.	.
.	.	.	.	.	.	.	.	.	.	.	4aa\	.	2A/	2e\	.	.
4E\	.	4a/	.	.	4E\	.	.	.	.	.	4gg\	.	.	.	.	.
!LO:LB:g=original	!	!	!	!	!	!	!LO:LB:g=original	!	!	!	!	!	!	!	!	!
=55	=55	=55	=55	=55	=55	=55	=55	=55	=55	=55	=55	=55	=55	=55	=55	=55
4F#\	6_	4a/	.	1ryy	4F#\	.	4A\	-men	4a\	-men	2.ff#\	-men	2d\	2f#\	1ryy	1ryy
4A\	.	4d/	.	.	4A\	.	4D/	a-	4d\	a-	.	.	.	.	.	.
4D\	.	4f#/	.	.	4D\	.	4F#/	.	4f#\	.	.	.	2d\	2f#\	.	.
4F#\	.	4a/	.	.	4F#\	.	4A\	.	4a\	.	8ee\L	a-	.	.	.	.
.	.	.	.	.	.	.	.	.	.	.	8ff#\J	.	.	.	.	.
=56	=56	=56	=56	=56	=56	=56	=56	=56	=56	=56	=56	=56	=56	=56	=56	=56
2.G\	4_ 2_	2.a/	.	1ryy	2.G\	.	1A	.	1a	.	4gg\	.	2A/	2e\	1ryy	1ryy
.	.	.	.	.	.	.	.	.	.	.	4ee\	.	.	.	.	.
.	.	.	.	.	.	.	.	.	.	.	4aa\	.	2A/	2e\	.	.
4E\	x	4a/	.	.	4E\	.	.	.	.	.	4gg\	.	.	.	.	.
!	!	!	!	!	!	!	!	!	!	!	!	!	!	!LO:LB:g=original	!	!
=57	=57	=57	=57	=57	=57	=57	=57	=57	=57	=57	=57	=57	=57	=57	=57	=57
4F#\	6	2a/	.	1ryy	4F#\	.	2A\	.	2a\	.	2ff#\	.	2d\	2f#\	1ryy	1ryy
4D\	.	.	.	.	4D\	.	.	.	.	.	.	.	.	.	.	.
[<2G\	6 5	4g/	.	.	[<2G\	.	2B\	.	4g\	.	4ee\	.	4e\	4g\	.	.
.	.	4f#/	.	.	.	.	.	.	4f#\	.	4dd\	.	4d\	4f#\	.	.
!	!	!	!	!	!	!	!	!	!	!	!	!	!LO:LB:g=original	!	!	!
=58	=58	=58	=58	=58	=58	=58	=58	=58	=58	=58	=58	=58	=58	=58	=58	=58
4G\]	4_ 2_	2e/	.	1ryy	4G\]	.	1A	.	2e\	.	2cc#\	.	2A/	2e\	1ryy	1ryy
8F#\L	.	.	.	.	8F#\L	.	.	.	.	.	.	.	.	.	.	.
8E\J	.	.	.	.	8E\J	.	.	.	.	.	.	.	.	.	.	.
4F#\	6	2f#/	.	.	4F#\	.	.	.	2f#\	.	2dd\	.	2d\	2f#\	.	.
4D\	.	.	.	.	4D\	.	.	.	.	.	.	.	.	.	.	.
=59	=59	=59	=59	=59	=59	=59	=59	=59	=59	=59	=59	=59	=59	=59	=59	=59
!LO:TX:a:i:t=pedal&colon;	!	!	!	!	!	!	!	!	!	!	!	!	!	!	!	!
[<1A	.	2e/	.	1ryy	1A	.	2A\	-men	2e\	-men	2cc#\	-men	1A	2e\	1ryy	1ryy
.	.	[2a/	.	.	.	.	2d\	a-	2a\	a-	4ff#\	a-	.	[<2a\	.	.
.	.	.	.	.	.	.	.	.	.	.	4ee\	.	.	.	.	.
!	!	!	!	!	!LO:LB:g=original	!	!	!	!	!	!LO:LB:g=original	!	!	!	!	!
=60	=60	=60	=60	=60	=60	=60	=60	=60	=60	=60	=60	=60	=60	=60	=60	=60
1A_<	.	2a/]	.	1ryy	1A	.	2f#\	.	2a\	.	4dd\	.	2f#\	2a\]	1ryy	1ryy
.	.	.	.	.	.	.	.	.	.	.	4b\	.	.	.	.	.
.	.	[2g/	.	.	.	.	2e\	.	2g\	.	4ee\	.	2e\	2g\	.	.
.	.	.	.	.	.	.	.	.	.	.	4dd\	.	.	.	.	.
!	!	!	!	!	!	!	!	!	!LO:LB:g=original	!	!	!	!	!	!	!
=61	=61	=61	=61	=61	=61	=61	=61	=61	=61	=61	=61	=61	=61	=61	=61	=61
1A_<	.	2g/]	.	1ryy	1A	.	2e\	.	2g\	.	4cc#\	.	2e\	2g\	1ryy	1ryy
.	.	.	.	.	.	.	.	.	.	.	4a\	.	.	.	.	.
.	.	[2f#/	.	.	.	.	2d\	.	2f#\	.	4dd\	.	2d\	2f#\	.	.
.	.	.	.	.	.	.	.	.	.	.	4cc#\	.	.	.	.	.
=62	=62	=62	=62	=62	=62	=62	=62	=62	=62	=62	=62	=62	=62	=62	=62	=62
1A_<	.	2f#/]	.	1ryy	1A	.	2d\	.	2f#\	.	4b\	.	2d\	2f#\	1ryy	1ryy
.	.	.	.	.	.	.	.	.	.	.	4g\	.	.	.	.	.
.	.	[2e/	.	.	.	.	2c#\	.	2e\	.	4cc#\	.	2A/	2e\	.	.
.	.	.	.	.	.	.	.	.	.	.	4b\	.	.	.	.	.
!	!	!	!	!	!	!	!LO:LB:g=original	!	!	!	!	!	!	!	!	!
=63	=63	=63	=63	=63	=63	=63	=63	=63	=63	=63	=63	=63	=63	=63	=63	=63
1A_<	.	2e/]	.	1ryy	1A	.	2c#\	.	2e\	.	4a\	.	1A	2e\	1ryy	1ryy
.	.	.	.	.	.	.	.	.	.	.	4f#\	.	.	.	.	.
.	.	[2d/	.	.	.	.	2B\	.	2d\	.	4b\	.	.	2d\	.	.
.	.	.	.	.	.	.	.	.	.	.	4a\	.	.	.	.	.
!	!	!LO:LB:g=original	!	!	!	!	!	!	!	!	!	!	!	!	!	!
=64	=64	=64	=64	=64	=64	=64	=64	=64	=64	=64	=64	=64	=64	=64	=64	=64
!	!	!LO:TX:t=P:problem=brak zakończenia ligatury	!	!	!	!	!	!	!	!	!	!	!	!	!	!
1A_<	.	2d/]	.	1ryy	1A	.	2B\	.	2d\	.	4g\	.	1A	2d\	1ryy	1ryy
.	.	.	.	.	.	.	.	.	.	.	4e/	.	.	.	.	.
.	.	2c#/	.	.	.	.	2A\	.	2c#\	.	4a\	.	.	2e\	.	.
.	.	.	.	.	.	.	.	.	.	.	4g\	.	.	.	.	.
=65	=65	=65	=65	=65	=65	=65	=65	=65	=65	=65	=65	=65	=65	=65	=65	=65
4A\]	.	4d/	.	1ryy	4A\	.	4A\	.	4d\	.	4f#/	.	2d\	2f#\	1ryy	1ryy
4B\	.	4f#/	.	.	4B\	.	4F#/	.	4f#\	.	2dd\	.	.	.	.	.
4G\	6 5	2e/	.	.	4G\	.	4B\	.	2e\	.	.	.	4d\	2e\	.	.
4A\	.	.	.	.	4A\	.	4A\	.	.	.	4cc#\	.	4A/	.	.	.
!LO:LB:g=original	!	!	!	!	!	!	!	!	!	!	!	!	!	!LO:LB:g=original	!	!
=66	=66	=66	=66	=66	=66	=66	=66	=66	=66	=66	=66	=66	=66	=66	=66	=66
4D\	.	4f#/	.	1ryy	2D\	-men	2A\	-men	2f#\	-men	2dd\	-men	2F#/	2d\	1ryy	1ryy
!	!	!LO:TX:a:i:t=Solo&colon;	!	!	!	!	!	!	!	!	!	!	!	!	!	!
4r	.	4d/	.	.	.	.	.	.	.	.	.	.	.	.	.	.
2r	.	4e/	.	.	2r	.	2r	.	2r	.	2r	.	2r	2r	.	.
.	.	4f#/	.	.	.	.	.	.	.	.	.	.	.	.	.	.
!	!	!	!	!	!	!	!	!	!	!	!LO:LB:g=original	!	!	!	!	!
=67	=67	=67	=67	=67	=67	=67	=67	=67	=67	=67	=67	=67	=67	=67	=67	=67
0r	.	2.g/	.	1ryy	0r	.	0r	.	0r	.	0r	.	0r	0r	1ryy	1ryy
.	.	4e/	.	.	.	.	.	.	.	.	.	.	.	.	.	.
=68	=68	=68	=68	=68	=68	=68	=68	=68	=68	=68	=68	=68	=68	=68	=68	=68
.	.	4f#/	.	1ryy	.	.	.	.	.	.	.	.	.	.	1ryy	1ryy
.	.	4a/	.	.	.	.	.	.	.	.	.	.	.	.	.	.
.	.	4d/	.	.	.	.	.	.	.	.	.	.	.	.	.	.
.	.	4f#/	.	.	.	.	.	.	.	.	.	.	.	.	.	.
=69	=69	=69	=69	=69	=69	=69	=69	=69	=69	=69	=69	=69	=69	=69	=69	=69
1r	.	2.g/	.	1ryy	1r	.	1r	.	1r	.	1r	.	1r	1r	1ryy	1ryy
.	.	4e/	.	.	.	.	.	.	.	.	.	.	.	.	.	.
!	!	!	!	!	!	!	!	!	!	!	!	!	!LO:LB:g=original	!	!	!
=70	=70	=70	=70	=70	=70	=70	=70	=70	=70	=70	=70	=70	=70	=70	=70	=70
!LO:TX:a:i:t=pleno&colon;	!	!	!	!	!	!	!	!	!	!	!	!	!	!	!	!
2r	.	2f#/	.	1ryy	2r	.	2r	.	2r	.	2r	.	2r	2r	1ryy	1ryy
!	!	!	!LO:DY:a	!	!	!	!	!	!	!	!	!	!	!	!	!
2BB/	.	2dd\	f	.	2B\	a-	2B\	a-	2f#\	a-	2dd\	a-	2d\	2f#\	.	.
!	!	!	!	!	!	!	!	!	!LO:LB:g=original	!	!	!	!	!	!	!
=71	=71	=71	=71	=71	=71	=71	=71	=71	=71	=71	=71	=71	=71	=71	=71	=71
2GG/	6 5	2dd\	.	1ryy	2G\	.	2B\	.	1e	.	2dd\	.	2d\	1e	1ryy	1ryy
2AA/	.	2cc#\	.	.	2A\	.	2A\	.	.	.	2cc#\	.	2A/	.	.	.
=72	=72	=72	=72	=72	=72	=72	=72	=72	=72	=72	=72	=72	=72	=72	=72	=72
2DD/	.	2dd 2f#\	.	1ryy	2D\	-men	2A\	-men	2f#\	-men	2dd\	-men	2F#/	2d\	1ryy	1ryy
2r	.	2r	.	.	2r	.	2r	.	2r	.	2r	.	2r	2r	.	.
==	==	==	==	==	==	==	==	==	==	==	==	==	==	==	==	==
*-	*-	*-	*-	*-	*-	*-	*-	*-	*-	*-	*-	*-	*-	*-	*-	*-
!!!system-decoration: [(g1)][(g2)][(g3)][(g4)]<s11>
!!!RDF**kern: > = above
!!!RDF**kern: < = below
!!!RDF**dynam: p = "p:"
!!!RDF**dynam: f = "f:"
!!!ENC: Andrzej Borzym
!!!END: 2020-07-19
!!!ENC: Andrzej Kubiczek
!!!END: 2022-01-14
